layout/right-panel/icons/toggled-on.svg

<svg height="512pt" viewBox="0 -107 512 512" width="512pt" xmlns="http://www.w3.org/2000/svg"><path d="m149.33203 0h213.33594c82.32422 0 149.33203 66.988281 149.33203 149.33203 0 82.34766-67.00781 149.33594-149.33203 149.33594h-213.33594c-82.324218 0-149.33203-66.98828-149.33203-149.33594 0-82.343749 67.007812-149.33203 149.33203-149.33203zm0 0" fill="#8b9cbe"/><path d="m277.33203 149.33203c0 47.12891 38.20703 85.33594 85.33594 85.33594 47.1289 0 85.33203-38.20703 85.33203-85.33594s-38.20313-85.33203-85.33203-85.33203c-47.12891 0-85.33594 38.20312-85.33594 85.33203zm0 0" fill="#fafafa"/></svg>

<?xml version="1.0" encoding="UTF-8" standalone="no"?>
<svg xmlns:dc="http://purl.org/dc/elements/1.1/" xmlns:cc="http://creativecommons.org/ns#"
    xmlns:rdf="http://www.w3.org/1999/02/22-rdf-syntax-ns#" xmlns:svg="http://www.w3.org/2000/svg"
    xmlns="http://www.w3.org/2000/svg" xmlns:sodipodi="http://sodipodi.sourceforge.net/DTD/sodipodi-0.dtd"
    xmlns:inkscape="http://www.inkscape.org/namespaces/inkscape" height="512pt" viewBox="0 -107 512 512" width="512pt"
    version="1.1" id="svg3767" sodipodi:docname="toggled-on.svg" inkscape:version="0.92.4 5da689c313, 2019-01-14">
    <metadata id="metadata3773">
        <rdf:RDF>
            <cc:Work rdf:about="">
                <dc:format>image/svg+xml</dc:format>
                <dc:type rdf:resource="http://purl.org/dc/dcmitype/StillImage" />
                <dc:title></dc:title>
            </cc:Work>
        </rdf:RDF>
    </metadata>
    <defs id="defs3771" />
    <sodipodi:namedview pagecolor="#f4f4f7" bordercolor="#555e70" borderopacity="1" objecttolerance="10"
        gridtolerance="10" guidetolerance="10" inkscape:pageopacity="0" inkscape:pageshadow="2"
        inkscape:window-width="1318" inkscape:window-height="740" id="namedview3769" showgrid="false"
        inkscape:zoom="0.80419922" inkscape:cx="341.33333" inkscape:cy="341.33333" inkscape:window-x="48"
        inkscape:window-y="28" inkscape:window-maximized="0" inkscape:current-layer="svg3767" />
    <path
        d="M 149.33203,0 H 362.66797 C 444.99219,0 512,66.988281 512,149.33203 512,231.67969 444.99219,298.66797 362.66797,298.66797 H 149.33203 C 67.007812,298.66797 0,231.67969 0,149.33203 0,66.988281 67.007812,0 149.33203,0 Z m 0,0"
        id="path3763" inkscape:connector-curvature="0" style="fill:#8b9cbe" />
    <path
        d="m 277.33203,149.33203 c 0,47.12891 38.20703,85.33594 85.33594,85.33594 C 409.79687,234.66797 448,196.46094 448,149.33203 448,102.20312 409.79687,64 362.66797,64 c -47.12891,0 -85.33594,38.20312 -85.33594,85.33203 z m 0,0"
        id="path3765" inkscape:connector-curvature="0" style="fill:#fafafa" />
</svg>
